X: 328
T: Yellow Rose Of Texas
B: canberra pickers and fiddlers
B: tunes
M:2/4
L:1/8
R: polka
Q: 1/4=100
K:D
V:1 
FG|:A2 A2|B4|A2 AG|FE D2|A2d2|c2e2|f3g|f2 ef|
g2 f2|e2 eg|fg fe|d4|c2 d2|e2 c2|(d4|d2):|
e2|:f2fg|a2a2|f2fg|a2a2|e2 ef|g2 g2|e2 ef|g2 g2|
f2fg|a2a2|f2fg|a2a2|e2 ef|gf e2|(d4|d2):|
% abcbook-tune_id 63da593477d4abf0ce19c29b
% abcbook-tune_composer_id 
% abcbook-link-0 https://www.youtube.com/watch?v=WO3raXhD2uQ
% abcbook-boost 0
% abcbook-difficulty 0
% abcbook-tags canberra pickers and fiddlers,old time tunes,© free
% abcbook-tablature 
% abcbook-transpose 
% abcbook-tuning ADAE
% abcbook-lastupdated 1722906632181
% abcbook-src-url https://tunebook.net/scrape/tunes.abc
% abcbook-soundfonts 
% abcbook-repeats 1


